!!!COM: Palestrina, Giovanni Perluigi da
!!!OPR: Missa Illumina oculos meos
!!!OTL: Benedictus
**kern	**kern	**kern	**kern
*Icalto	*Icalto	*Icant	*Icant
!Altus 2	!Altus 1	!Cantus 2	!Cantus 1
*clefG2	*clefG2	*clefG2	*clefG2
*k[]	*k[]	*k[]	*k[]
*E:phr	*E:phr	*E:phr	*E:phr
*M4/2	*M4/2	*M4/2	*M4/2
=1	=1	=1	=1
1r	0r	0r	0e
1e	.	.	.
=2	=2	=2	=2
1e	0r	0r	1g
1A	.	.	1a
=3	=3	=3	=3
1e	1r	0e	2g
.	.	.	2e
1r	1e	.	2.g
.	.	.	4a
=4	=4	=4	=4
0r	1e	1g	1b
.	1A	1a	1cc
=5	=5	=5	=5
1r	1e	2g	1b
.	.	2e	.
1e	1r	2.g	2r
.	.	.	2e
.	.	4a	.
=6	=6	=6	=6
1e	0r	1b	1g
1A	.	1cc	1a
=7	=7	=7	=7
1.e	0r	2b	2g
.	.	4g	2e
.	.	4a	.
.	.	4b	2.g
.	.	4cc	.
2e	.	[2b	.
.	.	.	4a
=8	=8	=8	=8
2d	0r	2b]	2b
2c	.	2.a	2cc
1B	.	.	1dd
.	.	8g#	.
.	.	8f#	.
.	.	2g#	.
=9	=9	=9	=9
0A	1r	1a	1cc
.	1e	2r	2r
.	.	[2cc	[2a
=10	=10	=10	=10
0r	1e	2cc]	2a]
.	.	2b	2g
.	1A	1a	1cc
=11	=11	=11	=11
2r	1.e	2g	2b
2.A	.	1cc	1a
4G	.	.	.
4E	2e	[2b	[2g
4F	.	.	.
=12	=12	=12	=12
2G	2d	2b]	4g]
.	.	.	4f
2A	2c	1a	4e
.	.	.	4d
1E	1B	.	1e
.	.	2g#	.
=13	=13	=13	=13
[0A	4A	0a	1e
.	4B	.	.
.	4c	.	.
.	4d	.	.
.	4e	.	2r
.	4c	.	.
.	[2f	.	2a
=14	=14	=14	=14
0A]	2f]	2r	2a
.	4e	2a	2a
.	4d	.	.
.	1e	2a	1cc
.	.	2a	.
=15	=15	=15	=15
0r	0r	1cc	2.a
.	.	.	4b
.	.	2.a	2cc
.	.	.	[2a
.	.	4b	.
=16	=16	=16	=16
0r	0r	2cc	4a]
.	.	.	4b
.	.	2.a	2cc
.	.	.	2.f
.	.	4b	.
.	.	2cc	.
.	.	.	4g
=17	=17	=17	=17
1r	2r	2.f	2a
.	2d	.	2a
.	.	4g	.
2r	2d	2a	4d
.	.	.	4e
2d	2d	2a	4f
.	.	.	4g
=18	=18	=18	=18
2d	1f	4d	1a
.	.	4e	.
2d	.	4f	.
.	.	4g	.
1f	2.d	[1a	1r
.	4e	.	.
=19	=19	=19	=19
2.d	2f	0a]	0r
.	2.d	.	.
4e	.	.	.
2f	.	.	.
.	4e	.	.
[2d	[2f	.	.
=20	=20	=20	=20
2d]	4f]	2r	1r
.	4e	.	.
2e	2c	2a	.
2f	2d	2a	2r
2f	2d	2a	2a
=21	=21	=21	=21
2e	0A	1cc	2a
2.A	.	.	2a
.	.	2.a	1cc
4B	.	.	.
2c	.	.	.
.	.	4b	.
=22	=22	=22	=22
2.F	0r	2cc	2.a
.	.	2.a	.
4G	.	.	4b
2A	.	.	2cc
.	.	4b	.
[2F	.	2cc	[2a
=23	=23	=23	=23
2F]	0r	2.f	4a]
.	.	.	4b
2.f	.	.	2cc
.	.	4g	.
.	.	4a	2.f
4e	.	4g	.
2d	.	4a	.
.	.	4b	4g
=24	=24	=24	=24
2.c	2r	1cc	2a
.	2e	.	2g
4B	.	.	.
2A	2e	1c	4a
.	.	.	4b
2A	2e	.	[2cc
=25	=25	=25	=25
1G	1g	1d	2cc]
.	.	.	2b
1c	2.e	2r	1cc
.	.	2e	.
.	4f	.	.
=26	=26	=26	=26
2r	2g	2e	0r
2e	2.c	2e	.
2e	.	1g	.
.	4d	.	.
2e	[2e	.	.
=27	=27	=27	=27
1g	4e]	2.e	0r
.	4d	.	.
.	2.c	.	.
.	.	4f	.
2.e	.	2g	.
.	4B	.	.
.	2A	2a	.
4f	.	.	.
=28	=28	=28	=28
2g	2G	2b	1r
2e	2A	2cc	.
2.f	2.d	2dd	1a
.	.	4d	.
4e	4c	4e	.
=29	=29	=29	=29
1d	4d	4f	2a
.	4e	4g	.
.	1f	4a	2a
.	.	4f	.
1c	.	1g	1cc
.	2e	.	.
=30	=30	=30	=30
0F	2.f	2r	2.a
.	.	2a	.
.	8e	.	4b
.	8d	.	.
.	2c	2a	2cc
.	2d	2a	4f
.	.	.	4g
=31	=31	=31	=31
1r	1A	1cc	4a
.	.	.	4g
.	.	.	4a
.	.	.	4b
2r	1r	2.a	2.cc
[2f	.	.	.
.	.	4b	4b
=32	=32	=32	=32
4f]	1r	2.cc	2a
4e	.	.	.
2c	.	.	2.g
.	.	4b	.
2d	2r	2a	.
.	.	.	4f#
2d	2d	2a	4f#
.	.	.	8g
.	.	.	8a
=33	=33	=33	=33
1G	2d	2g	1b
.	2d	2d	.
1r	1f	2d	1a
.	.	2d	.
=34	=34	=34	=34
0r	2.d	2f	[0a
.	.	2.d	.
.	4e	.	.
.	2f	.	.
.	.	4e	.
.	[2d	[2f	.
=35	=35	=35	=35
1A	2d]	2f]	0a]
.	4c	2e	.
.	4B	.	.
2A	2.c	2e	.
2A	.	[2a	.
.	4B	.	.
=36	=36	=36	=36
1c	2.A	4a]	2r
.	.	4b	.
.	.	2.cc	2.a
.	4B	.	.
2.A	2.c	.	.
.	.	4b	4b
.	.	2a	[2cc
4B	4d	.	.
=37	=37	=37	=37
2.c	[0e	2g	4cc]
.	.	.	8b
.	.	.	8a
.	.	1cc	2g
4B	.	.	.
2A	.	.	2a
2G#	.	2b	2b
=38	=38	=38	=38
1A	1e]	1a	1cc
1A	1e	1a	1cc
=39	=39	=39	=39
0E	0e	0g#	0b
==	==	==	==
*-	*-	*-	*-
!!!CDT: 1525/^1526/-1594/2/2
!!!OCY: Italia
!!!AGN: Mass (Parody)
!!!AST: renaissance, vocal
!!!ASW: Motet (Silva)
!!!PWK: Masses, Book 10
!!!RNB: Cadence finals: G,C,A
!!!YOR: Le Opere Complete, v. 27, p. 155
!!!YOO: Rome, Italy: Fratelli Scalera
!!!END: 1992//
!!!EED: John Miller
!!!YEC: Copyright 2000, John Miller
!!!YEN: United States of America
!!!YEM: Rights to all derivative electronic formats reserved.
!!!YEM: Refer to licensing agreement for further details.
!!!YEM: This file must be accompanied by the licensing agreement.
!!!YEM: A copy of the licensing agreement may be found at http://www.music-cog.ohio-state.edu/HumdrumDatabases/Palestrina/license.txt
!!!EMD: converted to Humdrum by Bret Aarden
